X:67
T:Fox-hunter's Jig. Ru1.067
%%VWML:RutherfordVol1-2248-p34-0p34
Z:Transcription by Village Music Project, Steve Mansfield July 2015
F:http://www.village-music-project.org.uk/
F:http://www.vwml.org/record/RutherfordVol1/2248/p34
Z:vmp.Mike Hicken 2015 www.village-music-project.org.uk
M:6/8
Q:3/8=100
K:D
A|deTf Tf2e|(f/g/a)g  Tf2e|dBB TB2A|dBB TB2A|
def Tf2e|(f/g/a)g Tf2e|dAA A2A|dAA A2 :|
|: a(b/a/g/f/) g(a/g/f/e/)|(f/g/a)g Tf2e|dBB TB2A|dBB TB2A|
ab/a/g/f/ ga/g/f/e/|(f/g/a)g Tf2e|dAA A2A|dAA A2 |]
W:
W: Foot it Hands across all four .|  Foot it and the
W: same back again :|  Gallop down the Middle up
W: again & cast off .|.  Right Hand and Left :|
|:
T:Merry Wakefield. Ru1.068
L:1/8
B:RUTHERFORD Complete Collection of 200 Country Dances Vol.1; London: David & John Rutherford 1756.
Z:vmp.Mike Hicken 2015 www.village-music-project.org.uk
N: * This note is shown as a dotted crotchet in the original which gives a quaver beat too long in the bar.
M:9/8
Q:3/8=100
K:G
Bdg gdB gdB|dfa afd a2c|Bdg gdB gdB|(B/c/d)B (e/f/g)B "*"A2G :|
|: Bcd dBG AFD|EFG ABc Tc2B|gdB ecA dBG| (B/c/d)B (e/f/g)B A2G |]
W:
W: Lead through the 2d. Cu. & cast up to the Top .|
W: Back to Back & cast off :|  Hands round four
W: with the 2d. Cu. .|.  Right Hand and Left :|
|:
